X: 1
P: Patience Quadrille, Figure 1 (Soldiers of the Queen)
C: Sir Arthur Sullivan
M: C
L: 1/8
K: D
A2 "A"\
| "D"d>d dd d3 d | "A7"cB AG "D"F A2 A | "D"f>f ff f3 f | "E7"ed cB "A"cA2 A |
| "A7"BA Bc "D"B A2 A | "A7"BA Bc "D"B A2 A | "Bb"d>d dd "F"=c2 "Gm"_B2 | "D"Ad "A7"ce "D"dA/A/ AA |
| "D"d>d dd d3 d | "A7"cB AG "D"F A2 A | "D"f>f ff f2 "A"e2 | "D"Ad "A7"ce "D"d3 "(E7)"E |[K:A]
| "A"A>G A>c E3 E | "E7"B>^A B>d E3 E | "A"c>d "C#7"B>c "F#m"A>G "Bm"F>B | "A"A>F "E7"G>E "A"AA/A/ AA |[K:D=g]
K:D
| "D"d>d dd d3 d | "A7"cB AG "D"F A2 A | "D"f>f ff f2 "A"e2 | "D"Ad "A7"ce "D"dz Hd2 |]
%%sep 10 10 200
